X: 634
P: Longways for as many as will
M: 6/4
L: 1/4
K: F
|: g |\
ecg a2f | eae f2a | bgb agf | ea^c d2f |\
cFc cef | cFc d2f | cBA Gee | f2F F2 :|

